X:351
T: Adje, jetzt geht mein Trauern an (4-50), S. 68
N: P0611
O: Lothringen
S: PINCK, Louis: Verklingende Weisen Bd 4, Kassel 1939]
N: bei 3b__. in 3. Zeile Punkt beigefgt,
N: wahrscheinlich Druckfehler im Original
R: Liebesklage]
M: 6/4
L: 1/8
K: A
=GAB2A2 | =G4F2FGBAB=c | d4z2
B2=c2c2 | e6ded2=c2 | B4z2
=c2e2dB | =c6z2c2B=G | A4z2
A2=c2e2 | d4=c4A2=G2 | A4z2

